X:200
T:Top It Off  
B:CRE1.069 (Cuir Barr Air)
F:file ID: cre.1/200top_it
S:John Potts
M:9/8
Q:160
R:slip jig
K:D
d2B|:A2F FEF d2A|Bcd e2c d2B|A2F FEF d2A|Bcd A2F DDD:|
|:f2d d2c d2f|e2d =c2B c2A|d2B B2A B2d|=c2A A2G A2g|
f2d d2c d2f|e2d =c2B c2A|d2B B2A d2A|1 Bcd e2c d2g:|\
[2 Bcd e2c d3||

%%%

